X:1
T:Túl a vizen
T:Túl a vizen 
T:Magyar népdal
C:Hungarian folk song
Z:Public Domain
L:1/8
Q:1/4=80
M:2/4
K:C
V:1 treble nm="MusicXML Part"
%%MIDI program 0
V:1
"Am" Ac/d/ ee | Ac/d/ e2 |"Dm" dd dc/d/ |"E" ee"Am" A2 ::"Dm" dd dc |"G" BA G2 | Bc dc |1 %7
w: Túl a _ víz- en|egy ko- * sár,|ab- ban la- kik _|egy ma- dár,|Ab- ban la- kik|egy ma- dár,|ki- ért szí- vem|
"Am" BA e2 :|2"Am" BA A2 |] %9
w: hol- tig fáj,|hol- tig fáj.|

